X:1
T:Jig : Steve Waring
Z:Roger Ngaret (Mai 99)
R:
C: Steve Waring
S:
A:Irlande
M:6/8
L:1/8
K:Am
E |: "Am"A2 B "F"cBA | "G"GAB "Am"A2 E | A2 B "F"cBA | "G"d3 dcB |
"Am"A2 B "F"cBA | "G"GAB "Am"AE^F | "G"G^FG "Em"E2 B |1 "Am"A3- A2 E :|2
"Am"A6 |: "Am"eae "G"dgd | "F"c2 B "Am"cBA | eae "G"dgd | "F"c2 B "Am"A3 ::
"C"cde "F"cBA | "C"cde "F"cBA |
"C"cde "F"cBA |1 "G"G2 B "Am"A3 :|2 "G"G2 B "Am"A3 E :|
